; generated by PrusaSlicer 2.8.1+win64 on 2024-10-26 at 18:25:13 UTC


;
;
; 

; external perimeters extrusion width = 0.45mm
; perimeters extrusion width = 0.45mm
; infill extrusion width = 0.45mm
; solid infill extrusion width = 0.45mm
; top infill extrusion width = 0.40mm
; first layer extrusion width = 0.42mm

M73 P0 R14
M73 Q0 S14
M201 X1000 Y1000 Z200 E5000 ; sets maximum accelerations, mm/sec^2
M203 X200 Y200 Z12 E120 ; sets maximum feedrates, mm / sec
M204 S1250 T1250 ; sets acceleration (S) and retract acceleration (R), mm/sec^2
M205 X8.00 Y8.00 Z0.40 E4.50 ; sets the jerk limits, mm/sec
M205 S0 T0 ; sets the minimum extruding and travel feed rate, mm/sec

; printing object Clips make smaller I2.STL id:0 copy 0
; stop printing object Clips make smaller I2.STL id:0 copy 0

;TYPE:Custom
M862.3 P "MK3" ; printer model check
M862.1 P0.4 ; nozzle diameter check
M115 U3.14.0 ; tell printer latest fw version
G90 ; use absolute coordinates
M83 ; extruder relative mode
M104 S215 ; set extruder temp
M140 S60 ; set bed temp
M190 S60 ; wait for bed temp
M109 S215 ; wait for extruder temp
G28 W ; home all without mesh bed level
G80 X99.3722 Y37.997 W31.0083 H13.0083 ; mesh bed levelling

G1 Z0.2 F720
G1 Y-3 F1000 ; go outside print area
G92 E0
G1 X60 E9 F1000 ; intro line
G1 X100 E12.5 F1000 ; intro line

G92 E0
M221 S95

; Don't change E values below. Excessive value can damage the printer.

M907 E538 ; set extruder motor current
G21 ; set units to millimeters
G90 ; use absolute coordinates
M83 ; use relative distances for extrusion

M900 K0.05 ; Filament gcode LA 1.5
M900 K30 ; Filament gcode LA 1.0




M107
;LAYER_CHANGE
;Z:0.2
;HEIGHT:0.2
G1 E-.8 F2100
G1 Z.6 F720
G1 X99.953 Y45.888 F10800
G1 Z.2 F720
G1 E.8 F2100
M204 S800
;TYPE:Skirt/Brim
;WIDTH:0.42
G1 F1200
G1 X101.285 Y44.827 E.05339
G1 X108.058 Y42.479 E.22476
G1 X121.883 Y38.295 E.45289
G1 X122.626 Y38.186 E.02355
G1 X127.626 Y38.186 E.15677
G1 X128.99 Y38.578 E.0445
G1 X129.936 Y39.634 E.04445
G1 X130.192 Y40.751 E.03593
M73 Q1 S14
G1 X130.192 Y48.251 E.23516
M73 P1 R14
G1 X129.8 Y49.614 E.04447
G1 X128.743 Y50.561 E.0445
G1 X127.626 Y50.817 E.03593
G1 X102.126 Y50.817 E.79953
G1 X100.763 Y50.425 E.04447
G1 X99.817 Y49.368 E.04448
G1 X99.561 Y48.251 E.03593
G1 X99.561 Y47.251 E.03135
G1 X99.936 Y45.945 E.0426
M204 S1000
G1 X99.936 Y45.945 F10800
G1 X100.31 Y46.062
M204 S800
G1 F1200
G1 X100.329 Y46.003 E.00194
G1 X101.409 Y45.184 E.0425
G1 X108.167 Y42.84 E.22428
G1 X121.993 Y38.656 E.45292
G1 X122.626 Y38.563 E.02006
G1 X127.626 Y38.563 E.15677
G1 X128.875 Y38.953 E.04103
G1 X129.677 Y39.986 E.041
G1 X129.815 Y40.751 E.02437
G1 X129.815 Y48.251 E.23516
G1 X129.424 Y49.499 E.04101
G1 X128.391 Y50.302 E.04102
G1 X127.626 Y50.44 E.02437
G1 X102.126 Y50.44 E.79953
G1 X100.878 Y50.049 E.04101
G1 X100.076 Y49.016 E.041
G1 X99.938 Y48.251 E.02437
G1 X99.938 Y47.251 E.03135
G1 X100.292 Y46.12 E.03716
M204 S1000
;WIPE_START
G1 F8640
G1 X100.31 Y46.062 E-.01402
G1 X100.329 Y46.003 E-.01431
G1 X101.409 Y45.184 E-.31297
G1 X103.286 Y44.533 E-.4587
;WIPE_END
G1 Z.6 F720
; printing object Clips make smaller I2.STL id:0 copy 0
G1 X123.234 Y45.37 F10800
G1 Z.2 F720
G1 E.8 F2100
M204 S800
;TYPE:Perimeter
;WIDTH:0.419999
G1 F1200
G1 X123.292 Y45.323 E.00234
G1 X123.386 Y45.147 E.00626
G1 X123.413 Y44.973 E.00552
G1 X123.413 Y41.538 E.1077
G1 X126.839 Y41.538 E.10742
G1 X126.839 Y43.251 E.05371
G1 X126.839 Y47.464 E.1321
G1 X111.6 Y47.464 E.47781
M73 P1 R13
G1 X111.432 Y47.477 E.00528
;WIDTH:0.392325
G1 X111.263 Y47.49 E.00492
G1 X111.421 Y47.442 E.0048
;WIDTH:0.419999
G1 X111.579 Y47.395 E.00517
G1 X114.365 Y45.538 E.10498
G1 X122.848 Y45.538 E.26598
G1 X123.107 Y45.476 E.00835
M73 P2 R13
M73 Q2 S14
G1 X123.188 Y45.408 E.00332
M204 S1000
;WIPE_START
G1 F8640
G1 X123.234 Y45.37 E-.01378
G1 X123.292 Y45.323 E-.01724
G1 X123.386 Y45.147 E-.04607
G1 X123.413 Y44.973 E-.04066
G1 X123.413 Y42.018 E-.68225
;WIPE_END
G1 Z.6 F720
G1 X105.83 Y47.476 F10800
G1 Z.2 F720
G1 E.8 F2100
M204 S800
;WIDTH:0.44174
G1 F1200
G1 X106.129 Y47.453 E.00994
;WIDTH:0.486736
G1 X106.428 Y47.431 E.01106
;WIDTH:0.531731
G1 X106.727 Y47.408 E.01219
;WIDTH:0.576727
G1 X107.027 Y47.386 E.01335
;WIDTH:0.621722
G1 X107.326 Y47.363 E.01443
;WIDTH:0.624268
G1 X107.341 Y47.362 E.00073
M204 S1000
;WIPE_START
G1 F8640
G1 X105.83 Y47.476 E-.34989
G1 X106.129 Y47.453 E-.06924
G1 X106.428 Y47.431 E-.06923
G1 X106.727 Y47.408 E-.06924
G1 X107.027 Y47.386 E-.06946
G1 X107.326 Y47.363 E-.06924
G1 X107.341 Y47.362 E-.00347
;WIPE_END
G1 E-.10023 F2100
G1 Z.6 F720
G1 X108.657 Y47.481 F10800
G1 Z.2 F720
G1 E.8 F2100
M204 S800
;WIDTH:0.43317
G1 F1200
G1 X108.43 Y47.458 E.0074
;WIDTH:0.467378
G1 X107.897 Y47.44 E.01882
;WIDTH:0.506601
G1 X107.758 Y47.421 E.00541
;WIDTH:0.545823
G1 X107.619 Y47.401 E.00587
;WIDTH:0.585046
G1 X107.48 Y47.382 E.00632
;WIDTH:0.624268
G1 X107.341 Y47.362 E.00679
G1 X107.42 Y47.299 E.00488
;WIDTH:0.585046
G1 X107.498 Y47.235 E.00455
;WIDTH:0.545823
G1 X107.577 Y47.172 E.00423
;WIDTH:0.506601
G1 X107.655 Y47.108 E.00389
;WIDTH:0.467378
G1 X107.914 Y46.834 E.01331
G1 X108.011 Y47.112 E.01039
G1 X108.298 Y47.39 E.0141
;WIDTH:0.463007
G1 X108.478 Y47.435 E.00648
;WIDTH:0.425097
G1 X108.599 Y47.466 E.00397
M204 S1000
G1 X108.599 Y47.466 F10800
G1 X108.657 Y47.481
M204 S800
;WIDTH:0.387186
G1 F1200
G1 X109.179 Y47.498 E.01495
;WIDTH:0.35239
G1 X109.213 Y47.499 E.00088
;WIDTH:0.351216
G1 X111.107 Y47.501 E.04855
;WIDTH:0.35392
G1 X111.199 Y47.497 E.00238
M204 S1000
;WIPE_START
G1 F8640
G1 X108.657 Y47.481 E-.58697
G1 X109.179 Y47.498 E-.1206
M73 Q2 S13
G1 X109.213 Y47.499 E-.00785
G1 X109.579 Y47.499 E-.08458
;WIPE_END
G1 Z.6 F720
G1 X122.95 Y45.111 F10800
G1 Z.2 F720
G1 E.8 F2100
M204 S800
;TYPE:External perimeter
;WIDTH:0.419999
G1 F1200
G1 X122.996 Y45.089 E.0016
G1 X123.036 Y44.973 E.00385
G1 X123.036 Y41.161 E.11952
G1 X127.216 Y41.161 E.13106
G1 X127.216 Y43.251 E.06553
G1 X127.216 Y47.841 E.14392
G1 X105.83 Y47.841 E.67054
;WIDTH:0.46897
G1 X105.697 Y47.817 E.00479
;WIDTH:0.517941
G1 X105.564 Y47.792 E.00535
;WIDTH:0.566911
G1 X105.431 Y47.768 E.00589
G1 X105.002 Y47.784 E.0187
;WIDTH:0.534489
G1 X104.573 Y47.8 E.01755
;WIDTH:0.502066
G1 X104.045 Y47.829 E.02019
;WIDTH:0.467936
G1 X103.108 Y47.871 E.03315
;WIDTH:0.422477
G1 X102.536 Y47.852 E.01806
G1 X102.536 Y47.594 E.00814
;WIDTH:0.423391
G1 X103.099 Y47.491 E.01811
;WIDTH:0.467936
G1 X104.009 Y47.406 E.0323
;WIDTH:0.502066
G1 X104.534 Y47.344 E.02018
;WIDTH:0.534489
G1 X104.963 Y47.295 E.01765
;WIDTH:0.566911
G1 X105.392 Y47.247 E.01881
G1 X105.52 Y47.203 E.0059
;WIDTH:0.517941
G1 X105.648 Y47.159 E.00535
;WIDTH:0.46897
G1 X105.775 Y47.114 E.00477
;WIDTH:0.419999
G1 X107.254 Y46.891 E.0469
G1 X107.387 Y46.808 E.00492
G1 X107.734 Y46.437 E.01593
G1 X108.254 Y45.727 E.02759
G1 X108.639 Y45.388 E.01608
G1 X108.582 Y45.788 E.01267
G1 X108.302 Y46.587 E.02655
G1 X108.318 Y46.82 E.00732
G1 X108.416 Y46.983 E.00596
G1 X108.681 Y47.121 E.00937
G1 X109.214 Y47.156 E.01675
G1 X111.106 Y47.161 E.05932
G1 X111.37 Y47.081 E.00865
G1 X114.251 Y45.161 E.10855
G1 X122.848 Y45.161 E.26955
G1 X122.896 Y45.138 E.00167
M204 S1000
;WIPE_START
G1 F8640
G1 X122.95 Y45.111 E-.01394
G1 X122.996 Y45.089 E-.01177
G1 X123.036 Y44.973 E-.02833
G1 X123.036 Y41.742 E-.74596
;WIPE_END
G1 Z.6 F720
G1 X125.898 Y41.708 F10800
G1 Z.2 F720
G1 E.8 F2100
M204 S800
;TYPE:Solid infill
;WIDTH:0.424232
G1 F1200
G1 X126.5 Y42.309 E.02697
G1 X126.5 Y42.849 E.01712
G1 X125.529 Y41.878 E.04354
G1 X124.99 Y41.878 E.01709
G1 X126.5 Y43.388 E.06771
G1 X126.5 Y43.927 E.01709
G1 X124.45 Y41.878 E.0919
G1 X123.911 Y41.878 E.01709
G1 X126.5 Y44.466 E.11607
G1 X126.5 Y45.006 E.01712
G1 X123.751 Y42.257 E.12326
G1 X123.749 Y42.794 E.01703
G1 X126.5 Y45.545 E.12335
G1 X126.5 Y46.084 E.01709
G1 X123.747 Y43.332 E.12342
G1 X123.746 Y43.869 E.01703
G1 X126.5 Y46.624 E.12351
G1 X126.5 Y47.125 E.01588
G1 X126.462 Y47.125 E.0012
G1 X123.744 Y44.407 E.12187
G1 X123.742 Y44.944 E.01703
G1 X125.923 Y47.125 E.09779
G1 X125.383 Y47.125 E.01712
G1 X123.641 Y45.383 E.07811
G1 X123.559 Y45.538 E.00556
G1 X123.393 Y45.674 E.0068
G1 X124.844 Y47.125 E.06506
G1 X124.305 Y47.125 E.01709
G1 X123.035 Y45.855 E.05695
G1 X122.854 Y45.878 E.00578
G1 X122.518 Y45.878 E.01065
G1 X123.766 Y47.125 E.05594
G1 X123.226 Y47.125 E.01712
G1 X121.979 Y45.878 E.05591
G1 X121.44 Y45.878 E.01709
G1 X122.687 Y47.125 E.05591
G1 X122.148 Y47.125 E.01709
M73 Q3 S13
G1 X120.901 Y45.878 E.05591
G1 X120.361 Y45.878 E.01712
M73 P3 R13
G1 X121.609 Y47.125 E.05594
G1 X121.069 Y47.125 E.01712
G1 X119.822 Y45.878 E.05591
G1 X119.283 Y45.878 E.01709
G1 X120.53 Y47.125 E.05591
G1 X119.991 Y47.125 E.01709
G1 X118.744 Y45.878 E.05591
G1 X118.204 Y45.878 E.01712
G1 X119.452 Y47.125 E.05594
G1 X118.912 Y47.125 E.01712
G1 X117.665 Y45.878 E.05591
G1 X117.126 Y45.878 E.01709
G1 X118.373 Y47.125 E.05591
G1 X117.834 Y47.125 E.01709
G1 X116.587 Y45.878 E.05591
G1 X116.047 Y45.878 E.01712
G1 X117.295 Y47.125 E.05594
G1 X116.755 Y47.125 E.01712
G1 X115.508 Y45.878 E.05591
G1 X114.969 Y45.878 E.01709
G1 X116.216 Y47.125 E.05591
G1 X115.677 Y47.125 E.01709
G1 X114.445 Y45.893 E.05524
G1 X114.121 Y46.108 E.01233
G1 X115.138 Y47.125 E.0456
G1 X114.598 Y47.125 E.01712
G1 X113.798 Y46.324 E.03589
G1 X113.474 Y46.54 E.01235
G1 X114.059 Y47.125 E.02623
G1 X113.52 Y47.125 E.01709
G1 X113.151 Y46.756 E.01655
G1 X112.827 Y46.971 E.01233
G1 X113.15 Y47.294 E.01448
M204 S1000
M106 S84.15
;LAYER_CHANGE
;Z:0.35
;HEIGHT:0.15
;BEFORE_LAYER_CHANGE
G92 E0.0
;0.35


;WIPE_START
G1 F8640
G1 X112.827 Y46.971 E-.10547
G1 X113.151 Y46.756 E-.08979
G1 X113.52 Y47.125 E-.1205
G1 X114.059 Y47.125 E-.12446
G1 X113.474 Y46.54 E-.19103
G1 X113.798 Y46.324 E-.08991
G1 X114.039 Y46.566 E-.07884
;WIPE_END
G1 Z.35 F720
;AFTER_LAYER_CHANGE
;0.35
M104 S210 ; set temperature
; stop printing object Clips make smaller I2.STL id:0 copy 0
G1 Z.75
G1 X113.15 Y50.817 F10800
G1 Z.35 F720
G1 E.8 F2100
;TYPE:Skirt/Brim
;WIDTH:0.42
G1 F2105
G1 X102.126 Y50.817 E.26661
G1 X100.763 Y50.425 E.0343
G1 X99.817 Y49.368 E.03431
G1 X99.561 Y48.251 E.02771
G1 X99.561 Y47.251 E.02418
G1 X99.953 Y45.888 E.0343
G1 X101.285 Y44.827 E.04118
G1 X108.058 Y42.479 E.17337
G1 X121.883 Y38.295 E.34933
G1 X122.626 Y38.186 E.01816
G1 X127.626 Y38.186 E.12092
G1 X128.99 Y38.578 E.03432
G1 X129.936 Y39.634 E.03429
G1 X130.192 Y40.751 E.02771
G1 X130.192 Y48.251 E.18139
G1 X129.8 Y49.614 E.0343
G1 X128.743 Y50.561 E.03432
G1 X127.626 Y50.817 E.02771
G1 X113.21 Y50.817 E.34865
G1 X113.21 Y50.817 F10800
G1 X113.21 Y50.44
G1 F2105
G1 X102.126 Y50.44 E.26807
G1 X100.878 Y50.049 E.03163
G1 X100.076 Y49.016 E.03163
G1 X99.938 Y48.251 E.0188
G1 X99.938 Y47.251 E.02418
G1 X100.329 Y46.003 E.03163
G1 X101.409 Y45.184 E.03278
G1 X108.167 Y42.84 E.17299
G1 X121.993 Y38.656 E.34936
G1 X122.626 Y38.563 E.01547
G1 X127.626 Y38.563 E.12092
G1 X128.875 Y38.953 E.03165
G1 X129.677 Y39.986 E.03163
G1 X129.815 Y40.751 E.0188
G1 X129.815 Y48.251 E.18139
G1 X129.424 Y49.499 E.03163
G1 X128.391 Y50.302 E.03164
G1 X127.626 Y50.44 E.0188
G1 X113.27 Y50.44 E.3472
;WIPE_START
G1 F8640
G1 X113.21 Y50.44 E-.01385
G1 X109.805 Y50.44 E-.78615
;WIPE_END
G1 Z.75 F720
; printing object Clips make smaller I2.STL id:0 copy 0
G1 X123.079 Y45.205 F10800
G1 Z.35 F720
G1 E.8 F2100
M204 S800
;TYPE:Perimeter
;WIDTH:0.449999
G1 F2105
G1 X123.12 Y45.174 E.00134
G1 X123.229 Y44.988 E.00562
G1 X123.269 Y44.767 E.00585
G1 X123.269 Y41.394 E.08789
G1 X126.984 Y41.394 E.0968
G1 X126.984 Y47.608 E.16191
G1 X114.656 Y47.608 E.32121
G1 X111.608 Y47.61 E.07942
;WIDTH:0.447418
G1 X111.353 Y47.634 E.00663
M73 Q4 S13
;WIDTH:0.397852
G1 X111.098 Y47.659 E.00584
;WIDTH:0.348286
G1 X108.743 Y47.659 E.04642
;WIDTH:0.384518
G1 X108.408 Y47.641 E.00737
M73 P4 R13
;WIDTH:0.429183
G1 X108.289 Y47.619 E.003
;WIDTH:0.473848
G1 X108.17 Y47.596 E.00334
;WIDTH:0.518513
G1 X108.051 Y47.574 E.00367
;WIDTH:0.563178
G1 X107.932 Y47.552 E.00401
;WIDTH:0.607843
G1 X107.813 Y47.529 E.00435
G1 X107.629 Y47.551 E.00665
;WIDTH:0.564739
G1 X107.446 Y47.573 E.00612
;WIDTH:0.521635
G1 X107.262 Y47.594 E.00565
;WIDTH:0.47853
G1 X106.746 Y47.613 E.01437
;WIDTH:0.440045
G1 X106.23 Y47.633 E.01313
;WIDTH:0.40156
G1 X105.714 Y47.652 E.01189
;WIDTH:0.408305
G1 X105.647 Y47.629 E.00166
;WIDTH:0.453536
G1 X105.581 Y47.607 E.00183
;WIDTH:0.498766
G1 X105.514 Y47.584 E.00206
;WIDTH:0.543997
G1 X105.448 Y47.561 E.00223
;WIDTH:0.589228
G1 X105.382 Y47.539 E.00242
;WIDTH:0.634458
G1 X105.315 Y47.516 E.00266
G1 X105.377 Y47.484 E.00262
;WIDTH:0.589228
G1 X105.44 Y47.452 E.00245
;WIDTH:0.543997
G1 X105.502 Y47.419 E.00224
;WIDTH:0.498766
G1 X105.565 Y47.387 E.00206
;WIDTH:0.453536
G1 X105.627 Y47.355 E.00183
;WIDTH:0.408305
G1 X105.689 Y47.323 E.00164
;WIDTH:0.40156
G1 X106.203 Y47.265 E.01192
;WIDTH:0.440045
G1 X106.716 Y47.208 E.01313
;WIDTH:0.47853
G1 X107.229 Y47.15 E.01437
;WIDTH:0.521635
G1 X107.358 Y47.111 E.00411
;WIDTH:0.564739
G1 X107.487 Y47.071 E.00449
;WIDTH:0.607843
G1 X107.616 Y47.031 E.00485
G1 X107.954 Y46.712 E.01668
G1 X107.969 Y46.879 E.00602
G1 X108.06 Y47.093 E.00835
G1 X108.141 Y47.135 E.00328
;WIDTH:0.563178
G1 X108.223 Y47.176 E.00304
;WIDTH:0.518513
G1 X108.305 Y47.217 E.00278
;WIDTH:0.473848
G1 X108.386 Y47.258 E.0025
;WIDTH:0.429183
G1 X108.468 Y47.299 E.00227
;WIDTH:0.384518
G1 X108.743 Y47.343 E.00612
;WIDTH:0.348286
G1 X111.098 Y47.343 E.04642
;WIDTH:0.397852
G1 X111.302 Y47.306 E.00473
;WIDTH:0.447418
G1 X111.505 Y47.269 E.00534
;WIDTH:0.449999
G1 X114.042 Y45.58 E.07941
G1 X114.321 Y45.394 E.00874
G1 X122.642 Y45.394 E.21681
G1 X122.917 Y45.331 E.00735
G1 X123.031 Y45.242 E.00377
M204 S1000
;WIPE_START
G1 F8640
G1 X123.079 Y45.205 E-.01399
G1 X123.12 Y45.174 E-.01187
G1 X123.229 Y44.988 E-.04978
G1 X123.269 Y44.767 E-.05186
G1 X123.269 Y41.854 E-.6725
;WIPE_END
G1 Z.75 F720
G1 X103.695 Y47.637 F10800
G1 Z.35 F720
G1 E.8 F2100
M204 S800
;WIDTH:0.441153
G1 F1500
G1 X104.019 Y47.613 E.00829
;WIDTH:0.489479
G1 X104.343 Y47.589 E.00927
;WIDTH:0.537805
G1 X104.667 Y47.564 E.01025
;WIDTH:0.586132
G1 X104.991 Y47.54 E.01122
;WIDTH:0.634458
G1 X105.315 Y47.516 E.0122
M204 S1000
;WIPE_START
G1 F8640
G1 X103.695 Y47.637 E-.3751
G1 X104.019 Y47.613 E-.07502
G1 X104.343 Y47.589 E-.07502
G1 X104.667 Y47.564 E-.07503
G1 X104.991 Y47.54 E-.07502
G1 X105.315 Y47.516 E-.07502
;WIPE_END
G1 E-.04979 F2100
G1 Z.75 F720
G1 X122.781 Y44.912 F10800
G1 Z.35 F720
G1 E.8 F2100
M204 S800
;TYPE:External perimeter
;WIDTH:0.449999
G1 F2073.277
G1 X122.801 Y44.903 E.00057
G1 F2077.082
G1 X122.851 Y44.767 E.00378
G1 F2001.026
G1 X122.851 Y40.976 E.09878
G1 F1814.407
G1 X123.526 Y40.976 E.01759
G1 F1837.061
G1 X126.726 Y40.976 E.08338
G1 F1807.349
G1 X127.401 Y40.976 E.01759
G1 F1816.781
G1 X127.401 Y41.651 E.01759
G1 F1857.223
G1 X127.401 Y47.351 E.14852
G1 F1810.973
G1 X127.401 Y48.026 E.01759
G1 F1802.446
G1 X126.726 Y48.026 E.01759
G1 F1829.074
G1 X104.37 Y48.026 E.5825
G1 F1839.413
G1 X103.695 Y48.026 E.01759
;WIDTH:0.487641
G1 F1822.346
G1 X103.595 Y48.007 E.00289
;WIDTH:0.525283
G1 F1813.212
G1 X103.496 Y47.988 E.0031
;WIDTH:0.562925
G1 F1806.815
G1 X103.396 Y47.97 E.00336
;WIDTH:0.600566
G1 F1802.705
G1 X103.296 Y47.951 E.00361
G1 F1835.248
G1 X102.403 Y47.974 E.03166
;WIDTH:0.553386
G1 F1874.015
G1 X102.403 Y47.489 E.01576
G1 F1854.33
G1 X102.625 Y47.456 E.00729
;WIDTH:0.600566
G1 F1797.252
G1 X103.254 Y47.386 E.02243
G1 F1754.282
G1 X103.35 Y47.352 E.00361
;WIDTH:0.562925
G1 F1743.862
G1 X103.446 Y47.319 E.00336
;WIDTH:0.525283
G1 F1731.76
G1 X103.542 Y47.285 E.00313
;WIDTH:0.487641
G1 F1717.537
G1 X103.637 Y47.252 E.00286
;WIDTH:0.449999
G1 F1709.452
G1 X107.165 Y46.723 E.09295
G1 F1720.154
G1 X107.277 Y46.669 E.00324
G1 F1871.123
G1 X108.637 Y45.382 E.04879
G1 F1932.197
G1 X108.425 Y46.597 E.03214
G1 F1900.701
G1 X108.475 Y46.814 E.0058
G1 F1912.386
G1 X108.6 Y46.937 E.00457
G1 F1929.23
G1 X108.743 Y46.976 E.00386
G1 F1988.182
G1 X111.098 Y46.976 E.06136
G1 F1943.205
G1 X111.274 Y46.923 E.00479
G1 F2018.714
G1 X114.195 Y44.976 E.09147
G1 F1895.36
G1 X114.87 Y44.976 E.01759
G1 F2071.871
